symbols/web/screen_lock_rotation/materialsymbolssharp/screen_lock_rotation_grad200_20px.svg

<svg xmlns="http://www.w3.org/2000/svg" height="20" width="20"><path d="m15.125 9.625 1.646-1.646 2.291 2.292-7 7-9.624-9.625L9.417.667l2.291 2.291-1.666 1.584-.625-.625-3.729 3.75 6.354 6.354 3.75-3.729Zm-4.417 10.042q-2.208 0-4.156-.844-1.948-.844-3.406-2.302-1.458-1.459-2.302-3.406Q0 11.167 0 8.958h2.292q0 1.375.427 2.657.427 1.281 1.198 2.343.771 1.063 1.833 1.865 1.062.802 2.333 1.26l-1.645-1.645 1.604-1.605 5.5 5.5q-.667.167-1.375.25-.709.084-1.459.084Zm1.563-12.229v-4.5h.833v-.834q0-.75.542-1.281.542-.531 1.292-.531t1.291.531q.542.531.542 1.281v.834h.833v4.5Zm1.833-4.5h1.667v-.834q0-.354-.24-.594-.239-.239-.593-.239-.355 0-.594.239-.24.24-.24.594Zm-3.354 6.02Z"/></svg>

<svg xmlns="http://www.w3.org/2000/svg" height="20" width="20"><path d="M15.125 9.625 16.771 7.979 19.062 10.271 12.062 17.271 2.438 7.646 9.417 0.667 11.708 2.958 10.042 4.542 9.417 3.917 5.688 7.667 12.042 14.021 15.792 10.292ZM10.708 19.667Q8.5 19.667 6.552 18.823Q4.604 17.979 3.146 16.521Q1.688 15.062 0.844 13.115Q0 11.167 0 8.958H2.292Q2.292 10.333 2.719 11.615Q3.146 12.896 3.917 13.958Q4.688 15.021 5.75 15.823Q6.812 16.625 8.083 17.083L6.438 15.438L8.042 13.833L13.542 19.333Q12.875 19.5 12.167 19.583Q11.458 19.667 10.708 19.667ZM12.271 7.438V2.938H13.104V2.104Q13.104 1.354 13.646 0.823Q14.188 0.292 14.938 0.292Q15.688 0.292 16.229 0.823Q16.771 1.354 16.771 2.104V2.938H17.604V7.438ZM14.104 2.938H15.771V2.104Q15.771 1.75 15.531 1.51Q15.292 1.271 14.938 1.271Q14.583 1.271 14.344 1.51Q14.104 1.75 14.104 2.104ZM10.75 8.958Q10.75 8.958 10.75 8.958Q10.75 8.958 10.75 8.958Z"/></svg>
